static/logos/grammarly-wordmark-color.svg

<svg width="100" height="25" viewBox="0 0 100 25" fill="none" xmlns="http://www.w3.org/2000/svg">
<g clip-path="url(#clip0_1_2558)">
<path fill-rule="evenodd" clip-rule="evenodd" d="M30.4077 17.8443C30.0399 17.7037 29.7993 17.4075 29.7993 17.0124C29.7993 16.5333 30.1952 16.1388 30.6765 16.1388C30.818 16.1388 30.9309 16.1667 31.03 16.2091C31.6527 16.4911 32.3173 16.6601 33.1239 16.6601C34.5951 16.6601 35.2883 15.9555 35.2883 14.6018V14.2352C34.6513 14.9969 33.9586 15.4616 32.8128 15.4616C31.0442 15.4616 29.4453 14.1788 29.4453 11.9372V11.9093C29.4453 9.65343 31.0724 8.38483 32.8128 8.38483C33.9867 8.38483 34.6798 8.87811 35.2597 9.51245V9.49811C35.2597 8.92032 35.7409 8.4413 36.335 8.4413C36.9292 8.4413 37.4098 8.92032 37.4098 9.51245V14.3763C37.4098 15.7299 37.085 16.7166 36.4479 17.3509C35.7409 18.056 34.6513 18.3661 33.1806 18.3661C32.1757 18.3661 31.2987 18.197 30.4077 17.8443ZM35.2883 11.9372V11.9093C35.2883 10.8798 34.4816 10.161 33.435 10.161C32.3883 10.161 31.596 10.8798 31.596 11.9093V11.9372C31.596 12.9804 32.3883 13.6855 33.435 13.6855C34.4816 13.6855 35.2883 12.9665 35.2883 11.9372Z" fill="#0E101A"/>
<path fill-rule="evenodd" clip-rule="evenodd" d="M30.4077 17.8442C30.0399 17.7037 29.7993 17.4074 29.7993 17.0123C29.7993 16.5333 30.1952 16.1388 30.6765 16.1388C30.818 16.1388 30.9309 16.1667 31.03 16.209C31.6527 16.491 32.3173 16.66 33.1239 16.66C34.5951 16.66 35.2883 15.9554 35.2883 14.6018V14.2352C34.6513 14.9969 33.9586 15.4615 32.8128 15.4615C31.0442 15.4615 29.4453 14.1787 29.4453 11.9372V11.9092C29.4453 9.65335 31.0724 8.38474 32.8128 8.38474C33.9867 8.38474 34.6798 8.87802 35.2597 9.51236V9.4981C35.2597 8.92023 35.7409 8.44122 36.335 8.44122C36.9292 8.44122 37.4098 8.92023 37.4098 9.51236V14.3762C37.4098 15.7299 37.085 16.7165 36.4479 17.3508C35.7409 18.0559 34.6513 18.3661 33.1806 18.3661C32.1757 18.3661 31.2987 18.197 30.4077 17.8442ZM35.2883 11.9372V11.9092C35.2883 10.8797 34.4816 10.1609 33.435 10.1609C32.3883 10.1609 31.596 10.8797 31.596 11.9092V11.9372C31.596 12.9803 32.3883 13.6854 33.435 13.6854C34.4816 13.6854 35.2883 12.9665 35.2883 11.9372ZM38.6272 9.51236C38.6272 8.92023 39.1079 8.44122 39.7024 8.44122C40.2965 8.44122 40.7772 8.92023 40.7772 9.51236V9.8504C41.0889 9.11777 41.5977 8.44122 42.2347 8.44122C42.8998 8.44122 43.2814 8.87802 43.2814 9.48384C43.2814 10.0479 42.9136 10.3865 42.4753 10.4852C41.3857 10.7392 40.7772 11.5706 40.7772 13.0933V15.0951C40.7772 15.6871 40.2965 16.1667 39.7024 16.1667C39.1079 16.1667 38.6272 15.6871 38.6272 15.0951V9.51236ZM43.027 13.9109V13.8829C43.027 12.2335 44.2857 11.4719 46.0829 11.4719C46.8465 11.4719 47.3983 11.5987 47.9361 11.7819V11.6551C47.9361 10.7673 47.384 10.2734 46.3091 10.2734C45.715 10.2734 45.2338 10.3584 44.8237 10.4852C44.6965 10.5274 44.6116 10.5418 44.5125 10.5418C44.0175 10.5418 43.6211 10.1609 43.6211 9.66712C43.6211 9.28679 43.8612 8.96261 44.2014 8.83531C44.8803 8.58171 45.6159 8.44122 46.6202 8.44122C47.7942 8.44122 48.6431 8.75122 49.1806 9.28679C49.7465 9.8504 50.0015 10.6828 50.0015 11.6979V15.1374C50.0015 15.7156 49.5346 16.1667 48.9543 16.1667C48.332 16.1667 47.9219 15.7299 47.9219 15.2783V15.2641C47.3983 15.8424 46.677 16.2227 45.6297 16.2227C44.2014 16.2227 43.027 15.4056 43.027 13.9109ZM47.9642 13.4176V13.0368C47.5965 12.8678 47.1157 12.7547 46.5916 12.7547C45.6721 12.7547 45.1066 13.1213 45.1066 13.7984V13.8264C45.1066 14.4047 45.5879 14.7428 46.2805 14.7428C47.2854 14.7428 47.9642 14.1929 47.9642 13.4176ZM51.1478 9.51236C51.1478 8.92023 51.6285 8.44122 52.2232 8.44122C52.8173 8.44122 53.2984 8.92023 53.2984 9.51236V9.59745C53.7929 8.96261 54.4442 8.38474 55.5333 8.38474C56.5233 8.38474 57.2733 8.82146 57.6692 9.5831C58.3342 8.80777 59.1266 8.38474 60.159 8.38474C61.7579 8.38474 62.7199 9.34335 62.7199 11.1624V15.0951C62.7199 15.6871 62.2386 16.1667 61.6445 16.1667C61.0505 16.1667 60.5692 15.6871 60.5692 15.0951V11.867C60.5692 10.8518 60.1165 10.33 59.3105 10.33C58.5038 10.33 58.0088 10.8518 58.0088 11.867V15.0951C58.0088 15.6871 57.5282 16.1667 56.9336 16.1667C56.3394 16.1667 55.8583 15.6871 55.8583 15.0951V11.867C55.8583 10.8518 55.4061 10.33 54.5996 10.33C53.7929 10.33 53.2984 10.8518 53.2984 11.867V15.0951C53.2984 15.6871 52.8173 16.1667 52.2232 16.1667C51.6285 16.1667 51.1478 15.6871 51.1478 15.0951V9.51236ZM63.8804 9.51236C63.8804 8.92023 64.3611 8.44122 64.9558 8.44122C65.5498 8.44122 66.0311 8.92023 66.0311 9.51236V9.59745C66.5256 8.96261 67.1769 8.38474 68.266 8.38474C69.2561 8.38474 70.0059 8.82146 70.4018 9.5831C71.067 8.80777 71.8592 8.38474 72.8917 8.38474C74.4906 8.38474 75.4525 9.34335 75.4525 11.1624V15.0951C75.4525 15.6871 74.9718 16.1667 74.3771 16.1667C73.7831 16.1667 73.3019 15.6871 73.3019 15.0951V11.867C73.3019 10.8518 72.8492 10.33 72.0431 10.33C71.2365 10.33 70.7415 10.8518 70.7415 11.867V15.0951C70.7415 15.6871 70.2609 16.1667 69.6662 16.1667C69.0721 16.1667 68.5915 15.6871 68.5915 15.0951V11.867C68.5915 10.8518 68.1388 10.33 67.3322 10.33C66.5256 10.33 66.0311 10.8518 66.0311 11.867V15.0951C66.0311 15.6871 65.5498 16.1667 64.9558 16.1667C64.3611 16.1667 63.8804 15.6871 63.8804 15.0951V9.51236ZM76.1606 13.9109V13.8829C76.1606 12.2335 77.4197 11.4719 79.2159 11.4719C79.98 11.4719 80.5318 11.5987 81.0692 11.7819V11.6551C81.0692 10.7673 80.518 10.2734 79.4421 10.2734C78.848 10.2734 78.3674 10.3584 77.9571 10.4852C77.8299 10.5274 77.7451 10.5418 77.646 10.5418C77.1506 10.5418 76.7547 10.1609 76.7547 9.66712C76.7547 9.28679 76.9952 8.96261 77.3344 8.83531C78.0138 8.58171 78.7494 8.44122 79.7538 8.44122C80.9282 8.44122 81.7766 8.75122 82.3145 9.28679C82.8801 9.8504 83.1342 10.6828 83.1342 11.6979V15.1374C83.1342 15.7156 82.6678 16.1667 82.0883 16.1667C81.4656 16.1667 81.0554 15.7299 81.0554 15.2783V15.2641C80.5318 15.8424 79.8099 16.2227 78.7638 16.2227C77.3344 16.2227 76.1606 15.4056 76.1606 13.9109ZM81.0978 13.4176V13.0368C80.73 12.8678 80.2488 12.7547 79.7256 12.7547C78.8056 12.7547 78.2401 13.1213 78.2401 13.7984V13.8264C78.2401 14.4047 78.7209 14.7428 79.414 14.7428C80.4183 14.7428 81.0978 14.1929 81.0978 13.4176ZM84.2809 9.51236C84.2809 8.92023 84.762 8.44122 85.3563 8.44122C85.9506 8.44122 86.4309 8.92023 86.4309 9.51236V9.8504C86.7424 9.11777 87.2522 8.44122 87.8891 8.44122C88.5538 8.44122 88.935 8.87802 88.935 9.48384C88.935 10.0479 88.5678 10.3865 88.1284 10.4852C87.0399 10.7392 86.4309 11.5706 86.4309 13.0933V15.0951C86.4309 15.6871 85.9506 16.1667 85.3563 16.1667C84.762 16.1667 84.2809 15.6871 84.2809 15.0951V9.51236ZM89.5866 6.77704C89.5866 6.18492 90.067 5.70587 90.6612 5.70587C91.2563 5.70587 91.7366 6.18492 91.7366 6.77704V15.0951C91.7366 15.6871 91.2563 16.1667 90.6612 16.1667C90.067 16.1667 89.5866 15.6871 89.5866 15.0951V6.77704ZM93.4489 18.1827C93.1366 18.0702 92.7694 17.8161 92.7694 17.2949C92.7694 16.773 93.1801 16.4202 93.6186 16.4202C93.7874 16.4202 93.8874 16.4488 93.9719 16.4767C94.1555 16.5333 94.2694 16.5617 94.4252 16.5617C94.8063 16.5617 94.9907 16.491 95.1891 16.1102L95.2596 15.9412L92.671 9.96343C92.6145 9.82236 92.5579 9.61113 92.5579 9.47015C92.5579 8.86384 93.0243 8.44122 93.6186 8.44122C94.1555 8.44122 94.467 8.73703 94.6506 9.24408L96.2924 13.6431L97.8768 9.25826C98.0465 8.80777 98.3571 8.44122 98.9096 8.44122C99.4604 8.44122 99.9276 8.86384 99.9276 9.42777C99.9276 9.59744 99.8711 9.83671 99.8284 9.93548L97.1833 16.2655C96.5465 17.802 95.9104 18.3802 94.6227 18.3802C94.1415 18.3802 93.8022 18.31 93.4489 18.1827Z" fill="#0E101A"/>
<path d="M11.7091 0.585938C5.24257 0.585938 0 5.82809 0 12.2951H23.4183C23.4183 5.82809 18.1761 0.585938 11.7091 0.585938Z" fill="#4CA385"/>
<path d="M11.7091 24.0042C18.1761 24.0042 23.4183 18.7617 23.4183 12.2951H0C0 18.7617 5.24257 24.0042 11.7091 24.0042Z" fill="#4CA385"/>
<g filter="url(#filter0_d_1_2558)">
<path fill-rule="evenodd" clip-rule="evenodd" d="M14.0187 13.8822C13.902 13.8822 13.7868 13.9081 13.6811 13.9578C13.5219 14.0327 13.3922 14.1584 13.3121 14.3151C13.2321 14.4717 13.2063 14.6506 13.2389 14.8235C13.3079 15.2068 13.6684 15.4694 14.0581 15.4694H15.2848L15.996 15.3696C14.8581 17.0391 12.8825 17.8071 10.7223 17.4681C8.96413 17.1919 7.45475 16.0026 6.81433 14.341C5.36906 10.5689 8.12394 6.96747 11.7135 6.96747C13.5847 6.96747 15.2249 8.06286 16.1657 9.38518V9.41395C16.2842 9.5883 16.467 9.70863 16.674 9.74863C16.881 9.78855 17.0954 9.74486 17.2703 9.62715C17.4331 9.51453 17.5472 9.34445 17.5896 9.15117C17.6321 8.95781 17.5996 8.75559 17.499 8.58518H17.505C16.8403 7.54418 15.9072 6.7016 14.8039 6.1462C13.7007 5.59081 12.4681 5.34314 11.2359 5.42926C7.81474 5.65975 5.04432 8.46133 4.84761 11.8862C4.61893 15.8723 7.78088 19.1271 11.7135 19.1271C12.695 19.1309 13.6656 18.9224 14.5589 18.5159C15.4522 18.1094 16.2471 17.5145 16.8889 16.772L16.7397 17.6076V18.3623C16.7397 18.7511 17.0018 19.112 17.3856 19.181C17.5003 19.2027 17.6184 19.1988 17.7314 19.1696C17.8445 19.1404 17.9497 19.0867 18.0396 19.0122C18.1295 18.9376 18.2018 18.8442 18.2515 18.7385C18.3011 18.6328 18.3268 18.5175 18.3268 18.4008V13.8822H14.0187Z" fill="white"/>
</g>
</g>
<defs>
<filter id="filter0_d_1_2558" x="4.43495" y="5.41254" width="14.2942" height="14.885" filterUnits="userSpaceOnUse" color-interpolation-filters="sRGB">
<feFlood flood-opacity="0" result="BackgroundImageFix"/>
<feColorMatrix in="SourceAlpha" type="matrix" values="0 0 0 0 0 0 0 0 0 0 0 0 0 0 0 0 0 0 127 0" result="hardAlpha"/>
<feOffset dy="0.701726"/>
<feGaussianBlur stdDeviation="0.200493"/>
<feColorMatrix type="matrix" values="0 0 0 0 0 0 0 0 0 0 0 0 0 0 0 0 0 0 0.15 0"/>
<feBlend mode="normal" in2="BackgroundImageFix" result="effect1_dropShadow_1_2558"/>
<feBlend mode="normal" in="SourceGraphic" in2="effect1_dropShadow_1_2558" result="shape"/>
</filter>
<clipPath id="clip0_1_2558">
<rect width="100" height="24.5902" fill="white"/>
</clipPath>
</defs>
</svg>

<svg xmlns="http://www.w3.org/2000/svg" width="256" height="64" fill="none" viewBox="0 0 100 25"><g clip-path="url(#a)"><path fill="#0E101A" fill-rule="evenodd" d="M30.408 17.844c-.368-.14-.609-.437-.609-.832a.88.88 0 0 1 .878-.873c.141 0 .254.028.353.07a4.915 4.915 0 0 0 2.094.451c1.471 0 2.164-.704 2.164-2.058v-.367c-.637.762-1.33 1.227-2.475 1.227-1.769 0-3.368-1.283-3.368-3.525v-.028c0-2.256 1.627-3.524 3.368-3.524 1.174 0 1.867.493 2.447 1.127v-.014a1.07 1.07 0 0 1 1.075-1.057c.594 0 1.075.48 1.075 1.071v4.864c0 1.354-.325 2.34-.962 2.975-.707.705-1.797 1.015-3.267 1.015a7.285 7.285 0 0 1-2.773-.522Zm4.88-5.907v-.028c0-1.03-.806-1.748-1.853-1.748s-1.839.719-1.839 1.748v.028c0 1.043.792 1.748 1.839 1.748s1.853-.719 1.853-1.748Z" clip-rule="evenodd"/><path fill="#0E101A" fill-rule="evenodd" d="M30.408 17.844c-.368-.14-.609-.437-.609-.832a.88.88 0 0 1 .878-.873c.141 0 .254.028.353.07a4.915 4.915 0 0 0 2.094.451c1.471 0 2.164-.705 2.164-2.058v-.367c-.637.762-1.33 1.226-2.475 1.226-1.769 0-3.368-1.282-3.368-3.524v-.028c0-2.256 1.627-3.524 3.368-3.524 1.174 0 1.867.493 2.447 1.127v-.014a1.07 1.07 0 0 1 1.075-1.057c.594 0 1.075.48 1.075 1.071v4.864c0 1.354-.325 2.34-.962 2.975-.707.705-1.797 1.015-3.267 1.015a7.284 7.284 0 0 1-2.773-.522Zm4.88-5.907v-.028c0-1.03-.806-1.748-1.853-1.748s-1.839.719-1.839 1.748v.028c0 1.043.792 1.748 1.839 1.748s1.853-.719 1.853-1.748Zm3.34-2.425c0-.592.48-1.07 1.074-1.07.595 0 1.075.478 1.075 1.07v.338c.312-.732.82-1.409 1.458-1.409.665 0 1.046.437 1.046 1.043 0 .564-.367.902-.806 1.001-1.09.254-1.698 1.086-1.698 2.608v2.002c0 .592-.48 1.072-1.075 1.072-.594 0-1.075-.48-1.075-1.072V9.512Zm4.399 4.399v-.028c0-1.65 1.259-2.411 3.056-2.411a5.41 5.41 0 0 1 1.853.31v-.127c0-.888-.552-1.382-1.627-1.382-.594 0-1.075.085-1.485.212a.914.914 0 0 1-.311.057.875.875 0 0 1-.892-.875c0-.38.24-.704.58-.832.68-.253 1.415-.394 2.42-.394 1.173 0 2.022.31 2.56.846.566.563.82 1.396.82 2.41v3.44c0 .579-.466 1.03-1.047 1.03-.622 0-1.032-.437-1.032-.889v-.014c-.524.578-1.245.959-2.292.959-1.429 0-2.603-.817-2.603-2.312Zm4.937-.493v-.381a3.346 3.346 0 0 0-1.372-.282c-.92 0-1.485.366-1.485 1.043v.028c0 .579.48.917 1.174.917 1.004 0 1.683-.55 1.683-1.325Zm3.184-3.906c0-.592.48-1.07 1.075-1.07.594 0 1.075.478 1.075 1.07v.085c.495-.634 1.146-1.212 2.235-1.212.99 0 1.74.436 2.136 1.198.665-.775 1.458-1.198 2.49-1.198 1.599 0 2.56.958 2.56 2.777v3.933c0 .592-.48 1.072-1.075 1.072-.593 0-1.075-.48-1.075-1.072v-3.228c0-1.015-.453-1.537-1.259-1.537-.806 0-1.301.522-1.301 1.537v3.228c0 .592-.48 1.072-1.075 1.072s-1.076-.48-1.076-1.072v-3.228c0-1.015-.452-1.537-1.258-1.537-.807 0-1.302.522-1.302 1.537v3.228c0 .592-.48 1.072-1.075 1.072-.594 0-1.075-.48-1.075-1.072V9.512Zm12.732 0c0-.592.481-1.07 1.076-1.07.594 0 1.075.478 1.075 1.07v.085c.495-.634 1.146-1.212 2.235-1.212.99 0 1.74.436 2.136 1.198.665-.775 1.457-1.198 2.49-1.198 1.599 0 2.56.958 2.56 2.777v3.933c0 .592-.48 1.072-1.075 1.072-.594 0-1.075-.48-1.075-1.072v-3.228c0-1.015-.453-1.537-1.259-1.537-.806 0-1.302.522-1.302 1.537v3.228c0 .592-.48 1.072-1.075 1.072-.594 0-1.075-.48-1.075-1.072v-3.228c0-1.015-.452-1.537-1.259-1.537-.806 0-1.3.522-1.3 1.537v3.228c0 .592-.482 1.072-1.076 1.072-.595 0-1.076-.48-1.076-1.072V9.512Zm12.28 4.399v-.028c0-1.65 1.26-2.411 3.056-2.411.764 0 1.316.127 1.853.31v-.127c0-.888-.551-1.382-1.627-1.382-.594 0-1.075.085-1.485.212a.914.914 0 0 1-.311.057.874.874 0 0 1-.891-.875c0-.38.24-.704.58-.832.679-.253 1.414-.394 2.419-.394 1.174 0 2.023.31 2.56.846.566.563.82 1.396.82 2.41v3.44a1.03 1.03 0 0 1-1.046 1.03c-.622 0-1.033-.437-1.033-.889v-.014c-.523.578-1.245.959-2.291.959-1.43 0-2.603-.817-2.603-2.312Zm4.938-.493v-.381a3.347 3.347 0 0 0-1.372-.282c-.92 0-1.486.366-1.486 1.043v.028c0 .579.48.917 1.174.917 1.004 0 1.684-.55 1.684-1.325Zm3.183-3.906c0-.592.481-1.07 1.075-1.07.595 0 1.075.478 1.075 1.07v.338c.311-.732.821-1.409 1.458-1.409.665 0 1.046.437 1.046 1.043 0 .564-.367.902-.807 1.001-1.088.254-1.697 1.086-1.697 2.608v2.002c0 .592-.48 1.072-1.075 1.072-.594 0-1.075-.48-1.075-1.072V9.512Zm5.306-2.735c0-.592.48-1.071 1.074-1.071.595 0 1.076.479 1.076 1.071v8.318c0 .592-.48 1.072-1.076 1.072-.594 0-1.074-.48-1.074-1.072V6.777Zm3.862 11.406c-.312-.113-.68-.367-.68-.888 0-.522.411-.875.85-.875.168 0 .268.029.353.057.184.056.297.085.453.085.381 0 .566-.071.764-.452l.07-.169-2.588-5.978a1.56 1.56 0 0 1-.113-.493c0-.606.466-1.029 1.06-1.029.538 0 .849.296 1.033.803l1.641 4.4 1.585-4.386c.17-.45.48-.817 1.033-.817.55 0 1.018.423 1.018.987 0 .17-.057.409-.1.507l-2.645 6.33c-.637 1.537-1.273 2.115-2.56 2.115-.482 0-.82-.07-1.174-.197Z" clip-rule="evenodd"/><path fill="#4CA385" d="M11.71.586C5.242.586 0 5.828 0 12.296h23.418c0-6.468-5.242-11.71-11.709-11.71Z"/><path fill="#4CA385" d="M11.71 24.004c6.466 0 11.708-5.242 11.708-11.709H0c0 6.467 5.243 11.71 11.71 11.71Z"/><g filter="url(#b)"><path fill="#fff" fill-rule="evenodd" d="M14.019 13.882a.793.793 0 0 0-.78.941c.069.384.43.646.82.646h1.226l.711-.1c-1.138 1.67-3.114 2.438-5.274 2.1-1.758-.277-3.267-1.466-3.908-3.128-1.445-3.772 1.31-7.374 4.9-7.374 1.87 0 3.51 1.096 4.452 2.418v.029a.798.798 0 0 0 1.104.213.783.783 0 0 0 .229-1.042h.006a6.87 6.87 0 0 0-6.27-3.156c-3.42.23-6.19 3.032-6.387 6.457-.23 3.986 2.933 7.241 6.865 7.241a6.806 6.806 0 0 0 5.176-2.355l-.15.836v.754c0 .39.263.75.647.819a.793.793 0 0 0 .94-.78v-4.519H14.02Z" clip-rule="evenodd"/></g></g><defs><clipPath id="a"><path fill="#fff" d="M0 0h100v24.59H0z"/></clipPath><filter id="b" width="14.294" height="14.885" x="4.435" y="5.413" color-interpolation-filters="sRGB" filterUnits="userSpaceOnUse"><feFlood flood-opacity="0" result="BackgroundImageFix"/><feColorMatrix in="SourceAlpha" result="hardAlpha" values="0 0 0 0 0 0 0 0 0 0 0 0 0 0 0 0 0 0 127 0"/><feOffset dy=".702"/><feGaussianBlur stdDeviation=".2"/><feColorMatrix values="0 0 0 0 0 0 0 0 0 0 0 0 0 0 0 0 0 0 0.15 0"/><feBlend in2="BackgroundImageFix" result="effect1_dropShadow_1_2558"/><feBlend in="SourceGraphic" in2="effect1_dropShadow_1_2558" result="shape"/></filter></defs></svg>
